src/components/icons/mala.svg

<?xml version="1.0" encoding="UTF-8"?>
<svg width="32px" height="32px" viewBox="0 0 32 32" version="1.1" xmlns="http://www.w3.org/2000/svg" xmlns:xlink="http://www.w3.org/1999/xlink">
    <!-- Generator: Sketch 50 (54983) - http://www.bohemiancoding.com/sketch -->
    <title>Pensel_gron</title>
    <desc>Created with Sketch.</desc>
    <defs></defs>
    <g id="Page-1" stroke="none" stroke-width="1" fill="none" fill-rule="evenodd">
        <g id="disturbances" transform="translate(-52.000000, -500.000000)" fill="#000000">
            <g id="Pensel_gron" transform="translate(52.000000, 500.000000)">
                <path d="M17.3917217,5.8930435 L17.3409888,5.94342731 L5.94319459,17.3413379 L5.89339258,17.3918381 L5.94319459,17.4424546 L6.32369122,17.823184 L8.47087913,19.9703719 L8.52126294,20.0204066 L8.57246126,19.9703719 L19.9690919,8.57246126 L20.0195921,8.5219611 L19.9690919,8.47134457 L19.732067,8.2349014 L19.0410059,7.54384038 L17.3917217,5.8930435 Z M17.7284671,20.726478 C17.9394274,20.726478 18.1385191,20.8087444 18.2885069,20.9587323 L27.1936409,29.8659608 C27.551331,30.2219055 28.0238683,30.4182045 28.5247974,30.4186699 C29.0299154,30.4182045 29.5048962,30.2219055 29.8627027,29.8659608 C30.2201601,29.5082706 30.4164591,29.0335225 30.4164591,28.529219 C30.4164591,28.0285227 30.2220218,27.5573818 29.8687534,27.2021352 L20.9574523,18.2879251 C20.8079299,18.1386355 20.7256635,17.940242 20.7256635,17.7292816 C20.7256635,17.5177394 20.8079299,17.3195786 20.9574523,17.1704053 L21.5920788,16.5367097 C22.4486035,15.6730871 22.9214898,14.5272918 22.9224207,13.3102844 C22.9214898,12.0997931 22.4490689,10.9583032 21.5928933,10.0963096 L21.1893574,9.69149373 L21.1388573,9.64122629 L21.0881244,9.69149373 L9.69172645,21.0894043 L9.64169173,21.1401372 L9.69172645,21.190521 L10.0942151,21.5932424 C10.9544633,22.449418 12.0975823,22.9223044 13.3136588,22.9237007 C14.5299681,22.9223044 15.6735525,22.4498835 16.5338007,21.5937078 L17.1692417,20.9582668 C17.3187641,20.8087444 17.5169249,20.726478 17.7284671,20.726478 Z M28.5291027,32 L28.5186303,32 C27.5968277,32 26.7291325,31.6392845 26.0755393,30.9840623 L17.7296307,22.6373391 L17.6514369,22.7139039 C16.4901658,23.8695897 14.9510743,24.5058453 13.3179641,24.5058453 C11.6782214,24.5067761 10.13785,23.8700552 8.97541535,22.712973 L7.35475566,21.0910334 L4.71094401,18.4495489 L0,13.737325 L1.11879975,12.6179434 L4.72374359,16.2224218 L4.77412739,16.2724565 L4.82486028,16.2224218 L5.70907861,15.3392507 L5.75957878,15.2886342 L5.70907861,15.238134 L2.10285482,11.6333065 L3.22165456,10.5143904 L6.82729656,14.1207306 L6.87768037,14.1704162 L6.92818053,14.1207306 L7.81158435,13.2373268 L7.86150271,13.1868266 L7.81158435,13.1362101 L4.20512783,9.53173169 L5.3241603,8.41269922 L8.9303841,12.0168285 L8.98065154,12.067096 L9.03126807,12.0168285 L9.91443916,11.134821 L9.96517205,11.0842045 L9.91443916,11.0337044 L6.30844809,7.42771327 L7.42771327,6.30891353 L11.0327735,9.91397372 L11.0830409,9.96400845 L11.1337738,9.91397372 L12.0170613,9.03022083 L12.067096,8.97972066 L12.0170613,8.92898778 L8.41083746,5.3253239 L9.53010265,4.20664051 L13.1345811,7.81158435 L13.1850812,7.86161907 L13.235465,7.81158435 L14.119567,6.92864597 L14.1701835,6.87837853 L14.119567,6.827762 L10.5143904,3.22212 L11.6333065,2.10355297 L15.2374359,5.70849681 L15.2881688,5.7586479 L15.3385526,5.70849681 L16.22312,4.82532572 L16.2735038,4.77459283 L16.22312,4.72420903 L12.6164307,1.11926519 L13.7361614,0 L18.4473381,4.71280576 L22.7130894,8.97762619 C23.8694734,10.1385482 24.5053798,11.6769415 24.5042162,13.3102844 C24.5053798,14.9490962 23.8690079,16.4916785 22.7118094,17.6531823 L22.6860939,17.6784323 L22.6351283,17.7288161 L22.6856285,17.7800145 L30.9783607,26.0730958 C31.6296267,26.7240127 32.0001164,27.6176561 31.9984873,28.529219 C32.0001164,29.4550942 31.6387027,30.326862 30.981037,30.9847605 C30.3260475,31.6392845 29.4549778,32 28.5291027,32 Z" id="Fill-3"></path>
            </g>
        </g>
    </g>
</svg>

<svg width="32" height="32" xmlns="http://www.w3.org/2000/svg"><path d="M17.392 5.893l-.051.05L5.943 17.341l-.05.05.05.051.38.381 2.148 2.147.05.05.051-.05L19.97 8.572l.05-.05-.05-.05-.237-.237-.691-.691-1.65-1.651zm.336 14.833c.211 0 .41.083.56.233l8.906 8.907a1.887 1.887 0 0 0 2.675-2.664l-8.912-8.914a.784.784 0 0 1-.231-.559c0-.211.082-.41.231-.559l.635-.633a4.56 4.56 0 0 0 1.33-3.227 4.54 4.54 0 0 0-1.33-3.214l-.403-.405-.05-.05-.05.05L9.691 21.09l-.05.051.05.05.402.403a4.542 4.542 0 0 0 3.22 1.33 4.543 4.543 0 0 0 3.22-1.33l.635-.635a.785.785 0 0 1 .56-.232zM28.53 32h-.01c-.922 0-1.79-.36-2.443-1.016l-8.346-8.347-.079.077a6.106 6.106 0 0 1-4.333 1.792c-1.64 0-3.18-.636-4.343-1.793l-1.62-1.622L4.71 18.45 0 13.737l1.119-1.12 3.605 3.605.05.05.05-.05.885-.883.05-.05-.05-.05-3.606-3.606 1.119-1.119 3.605 3.607.05.05.051-.05.884-.884.05-.05-.05-.05-3.607-3.605 1.12-1.12 3.605 3.605.05.05.051-.05.883-.882.051-.05-.05-.051-3.607-3.606 1.12-1.12 3.605 3.606.05.05.05-.05.884-.884.05-.05-.05-.051-3.606-3.604 1.12-1.118 3.604 3.605.05.05.05-.05.885-.883.05-.05-.05-.051-3.606-3.606 1.12-1.118 3.603 3.604.051.05.05-.05.885-.883.05-.05-.05-.05-3.607-3.606L13.736 0l4.711 4.713 4.266 4.265a6.095 6.095 0 0 1 1.791 4.332 6.108 6.108 0 0 1-1.792 4.343l-.026.025-.05.05.05.052 8.292 8.293a3.486 3.486 0 0 1 1.02 2.456 3.443 3.443 0 0 1-1.017 2.456A3.447 3.447 0 0 1 28.529 32z" fill="#000" fill-rule="evenodd"/></svg>
